svgs/light/cross.svg

<svg xmlns="http://www.w3.org/2000/svg" viewBox="0 0 384 512"><!--! Font Awesome Pro 6.6.0 by @fontawesome - https://fontawesome.com License - https://fontawesome.com/license (Commercial License) Copyright 2024 Fonticons, Inc. --><path d="M128 40c0-22.1 17.9-40 40-40l48 0c22.1 0 40 17.9 40 40l0 88 88 0c22.1 0 40 17.9 40 40l0 48c0 22.1-17.9 40-40 40l-88 0 0 216c0 22.1-17.9 40-40 40l-48 0c-22.1 0-40-17.9-40-40l0-216-88 0c-22.1 0-40-17.9-40-40l0-48c0-22.1 17.9-40 40-40l88 0 0-88zm40-8c-4.4 0-8 3.6-8 8l0 104c0 8.8-7.2 16-16 16L40 160c-4.4 0-8 3.6-8 8l0 48c0 4.4 3.6 8 8 8l104 0c8.8 0 16 7.2 16 16l0 232c0 4.4 3.6 8 8 8l48 0c4.4 0 8-3.6 8-8l0-232c0-8.8 7.2-16 16-16l104 0c4.4 0 8-3.6 8-8l0-48c0-4.4-3.6-8-8-8l-104 0c-8.8 0-16-7.2-16-16l0-104c0-4.4-3.6-8-8-8l-48 0z"/></svg>

<svg xmlns="http://www.w3.org/2000/svg" viewBox="0 0 384 512"><!--! Font Awesome Pro 6.4.2 by @fontawesome - https://fontawesome.com License - https://fontawesome.com/license (Commercial License) Copyright 2023 Fonticons, Inc. --><path d="M128 40c0-22.1 17.9-40 40-40h48c22.1 0 40 17.9 40 40v88h88c22.1 0 40 17.9 40 40v48c0 22.1-17.9 40-40 40H256V472c0 22.1-17.9 40-40 40H168c-22.1 0-40-17.9-40-40V256H40c-22.1 0-40-17.9-40-40V168c0-22.1 17.9-40 40-40h88V40zm40-8c-4.4 0-8 3.6-8 8V144c0 8.8-7.2 16-16 16H40c-4.4 0-8 3.6-8 8v48c0 4.4 3.6 8 8 8H144c8.8 0 16 7.2 16 16V472c0 4.4 3.6 8 8 8h48c4.4 0 8-3.6 8-8V240c0-8.8 7.2-16 16-16H344c4.4 0 8-3.6 8-8V168c0-4.4-3.6-8-8-8H240c-8.8 0-16-7.2-16-16V40c0-4.4-3.6-8-8-8H168z"/></svg>
